X:1
T:Title
%%score { ( 1 3 ) | ( 2 4 ) }
L:1/8
M:4/4
K:C
V:1 treble nm="Grand Piano"
V:3 treble 
V:2 bass 
V:4 bass 
V:1
 z4 z2 z[Q:1/4=106] [EG] | [EG]>[DF] [CE]>[DF] [EG]2 [Ge]2 | d2 c>A [EG]4 | %3
 A>^G A>B [Ec]2 [EG]>[Ec] | d2 d>e d4 | [EG]>[DF] [CE]>[DF] [EG]2 [Ge]2 | d2 c>A [EG]4 | %7
 A2 B>c [Fd]2 B2 | [Ec]6 z2 | [CE]2 [EG]>[FA] [EG]4 | F2 A>B A4 |[M:3/4] G2 B>c d2 |[M:1/4] G2 | %13
[M:4/4] [Ge]2 [Ec]>[FA] [EG]4 | [CE]2 [EG]>[FA] [EG]4 | F2 A>B A4 |[M:3/4] G2 B>c d2 |[M:1/4] B2 | %18
[M:7/8] c2- [Fc-]2 [Ec]2 z |] %19
V:2
 z4 z2 z [C,G,] | [C,G,]>[B,,G,] [C,G,]>[C,G,] [C,C]2 [C,C]2 | [F,A,F]2 [F,A,F]>[F,CF] [C,C]4 | %3
 [F,CF]>[F,B,F] [F,CF]>[F,CF] [C,C]2 [C,C]>[C,C] | [G,B,G]2 [G,B,G]>[G,CG] [G,B,G]4 | %5
 [C,C]>[C,G,] [C,G,]>[C,C] [C,C]2 [C,C]2 | [F,A,F]2 [F,A,F]>[F,CF] [C,C]4 | %7
 [F,CF]2 [F,B,F]>[F,A,F] [D,A,]2 [G,F]2 | [C,G,]6 z2 | [C,G,]2 [C,G,]>[C,C] [C,C]4 | %10
 [F,A,]2[K:treble] [F,CF]>[F,DF] [F,CF]4 |[M:3/4] [G,B,F]2 [G,DF]>[G,CE] [G,B,G]2 | %12
[M:1/4][K:bass] [G,B,]2 |[M:4/4] [C,C]2 [C,C]>[C,C] [C,C]4 | [C,G,]2 [C,G,]>[C,C] [C,C]4 | %15
 [F,A,]2[K:treble] [F,CF]>[F,DF] [F,CF]4 |[M:3/4] [G,B,F]2 [G,DF]>[G,CE] [G,B,G]2 |[M:1/4] [G,F]2 | %18
[M:7/8][K:bass] G,2 A,2 G,2 z |] %19
V:3
 x8 | x8 | x8 | x8 | x8 | x8 | x8 | x8 | x8 | x8 | x8 |[M:3/4] x6 |[M:1/4] x2 |[M:4/4] x8 | x8 | %15
 x8 |[M:3/4] x6 |[M:1/4] x2 |[M:7/8] E2 z z z z2 |] %19
V:4
 x8 | x8 | x8 | x8 | x8 | x8 | x8 | x8 | x8 | x8 | x2[K:treble] x6 |[M:3/4] x6 | %12
[M:1/4][K:bass] x2 |[M:4/4] x8 | x8 | x2[K:treble] x6 |[M:3/4] x6 |[M:1/4] x2 | %18
[M:7/8][K:bass] C,-C,-C,- C,3 z |] %19

